public/zimo-vertical.svg

<?xml version="1.0" encoding="UTF-8" standalone="no"?>
<!DOCTYPE svg PUBLIC "-//W3C//DTD SVG 1.1//EN" "http://www.w3.org/Graphics/SVG/1.1/DTD/svg11.dtd">
<!-- Created with Vectornator (http://vectornator.io/) -->
<svg height="100%" stroke-miterlimit="10" style="fill-rule:nonzero;clip-rule:evenodd;stroke-linecap:round;stroke-linejoin:round;" version="1.1" viewBox="0 0 55.1155 39.1785" width="100%" xml:space="preserve" xmlns="http://www.w3.org/2000/svg" xmlns:vectornator="http://vectornator.io" xmlns:xlink="http://www.w3.org/1999/xlink">
<defs>
<linearGradient gradientTransform="matrix(1 0 0 1 0 0)" gradientUnits="userSpaceOnUse" id="LinearGradient" x1="-8.59599" x2="62.0979" y1="45.2972" y2="-5.39529">
<stop offset="0" stop-color="#fbceff"/>
<stop offset="0.486525" stop-color="#ffe1e1"/>
<stop offset="1" stop-color="#d0fff9"/>
</linearGradient>
</defs>
<g id="Layer-1" vectornator:layerName="Layer 1">
<g opacity="1" vectornator:layerName="Group 10">
<g opacity="1" vectornator:layerName="Group 9">
<g opacity="1" vectornator:layerName="Group 1">
<path d="M5 0.21875C3.4191 0.21875 2.19003 0.647018 1.3125 1.53125C0.434967 2.41548 0 3.67801 0 5.3125C0 6.9068 0.450586 8.13809 1.34375 9.03125C2.23691 9.92441 3.49052 10.375 5.09375 10.375C6.24146 10.375 7.17385 10.1698 7.9375 9.71875C8.70116 9.2677 9.2722 8.6632 9.625 7.9375C9.9778 7.21181 10.1562 6.29502 10.1562 5.1875C10.1563 4.09784 9.93987 3.19891 9.53125 2.46875C9.12263 1.73859 8.54713 1.16754 7.8125 0.78125C7.07787 0.394957 6.14772 0.21875 5 0.21875ZM16.1562 0.21875C14.5753 0.21875 13.3463 0.647018 12.4688 1.53125C11.5912 2.41548 11.1562 3.67801 11.1562 5.3125C11.1562 6.9068 11.6068 8.13809 12.5 9.03125C13.3932 9.92441 14.6468 10.375 16.25 10.375C17.3977 10.375 18.3301 10.1698 19.0938 9.71875C19.8574 9.2677 20.4285 8.6632 20.7812 7.9375C21.134 7.21181 21.3125 6.29502 21.3125 5.1875C21.3125 4.09784 21.0961 3.19891 20.6875 2.46875C20.2789 1.73859 19.7034 1.16754 18.9688 0.78125C18.2341 0.394957 17.304 0.21875 16.1562 0.21875ZM27.3125 0.21875C25.7316 0.21875 24.5025 0.647018 23.625 1.53125C22.7475 2.41548 22.3125 3.67801 22.3125 5.3125C22.3125 6.9068 22.7631 8.13809 23.6562 9.03125C24.5494 9.92441 25.803 10.375 27.4062 10.375C28.554 10.375 29.4863 10.1698 30.25 9.71875C31.0137 9.2677 31.5847 8.6632 31.9375 7.9375C32.2903 7.21181 32.4688 6.29502 32.4688 5.1875C32.4688 4.09784 32.2524 3.19891 31.8438 2.46875C31.4351 1.73859 30.8596 1.16754 30.125 0.78125C29.3904 0.394957 28.4602 0.21875 27.3125 0.21875ZM38.4688 0.21875C36.8878 0.21875 35.6588 0.647018 34.7812 1.53125C33.9037 2.41548 33.4688 3.67801 33.4688 5.3125C33.4688 6.9068 33.9193 8.13809 34.8125 9.03125C35.7057 9.92441 36.9593 10.375 38.5625 10.375C39.7102 10.375 40.6426 10.1698 41.4062 9.71875C42.1699 9.2677 42.741 8.6632 43.0938 7.9375C43.4465 7.21181 43.625 6.29502 43.625 5.1875C43.625 4.09784 43.4086 3.19891 43 2.46875C42.5914 1.73859 42.0159 1.16754 41.2812 0.78125C40.5466 0.394957 39.6165 0.21875 38.4688 0.21875ZM49.625 0.21875C48.0441 0.21875 46.815 0.647018 45.9375 1.53125C45.06 2.41548 44.625 3.67801 44.625 5.3125C44.625 6.9068 45.0756 8.13809 45.9688 9.03125C46.8619 9.92441 48.1155 10.375 49.7188 10.375C50.8665 10.375 51.7988 10.1698 52.5625 9.71875C53.3262 9.2677 53.8972 8.6632 54.25 7.9375C54.6028 7.21181 54.7812 6.29502 54.7812 5.1875C54.7812 4.09784 54.5649 3.19891 54.1562 2.46875C53.7476 1.73859 53.1721 1.16754 52.4375 0.78125C51.7029 0.394957 50.7727 0.21875 49.625 0.21875ZM4.96875 3.25C6.06734 3.25 6.82575 3.42398 7.25 3.78125C7.67425 4.13852 7.875 4.62924 7.875 5.28125C7.875 5.9154 7.68318 6.41282 7.25 6.78125C6.81682 7.14968 6.08516 7.34375 5.09375 7.34375C4.09341 7.34375 3.37068 7.15191 2.9375 6.78125C2.50432 6.41059 2.3125 5.92432 2.3125 5.3125C2.3125 4.67389 2.51101 4.1854 2.9375 3.8125C3.36399 3.4396 4.04433 3.25 4.96875 3.25ZM16.125 3.25C17.2236 3.25 17.982 3.42398 18.4062 3.78125C18.8305 4.13852 19.0312 4.62924 19.0312 5.28125C19.0312 5.9154 18.8082 6.41282 18.375 6.78125C17.9418 7.14968 17.2414 7.34375 16.25 7.34375C15.2497 7.34375 14.5269 7.15191 14.0938 6.78125C13.6606 6.41059 13.4375 5.92432 13.4375 5.3125C13.4375 4.67389 13.6673 4.1854 14.0938 3.8125C14.5202 3.4396 15.2006 3.25 16.125 3.25ZM27.2812 3.25C28.3798 3.25 29.1382 3.42398 29.5625 3.78125C29.9868 4.13852 30.1875 4.62924 30.1875 5.28125C30.1875 5.9154 29.9644 6.41282 29.5312 6.78125C29.0981 7.14968 28.3977 7.34375 27.4062 7.34375C26.4059 7.34375 25.6832 7.15191 25.25 6.78125C24.8168 6.41059 24.5938 5.92432 24.5938 5.3125C24.5937 4.67389 24.8235 4.1854 25.25 3.8125C25.6765 3.4396 26.3568 3.25 27.2812 3.25ZM38.4375 3.25C39.5361 3.25 40.2945 3.42398 40.7188 3.78125C41.143 4.13852 41.3438 4.62924 41.3438 5.28125C41.3437 5.9154 41.1207 6.41282 40.6875 6.78125C40.2543 7.14968 39.5539 7.34375 38.5625 7.34375C37.5622 7.34375 36.8394 7.15191 36.4062 6.78125C35.9731 6.41059 35.75 5.92432 35.75 5.3125C35.75 4.67389 35.9798 4.1854 36.4062 3.8125C36.8327 3.4396 37.5131 3.25 38.4375 3.25ZM49.5938 3.25C50.6923 3.25 51.4508 3.42398 51.875 3.78125C52.2993 4.13852 52.5 4.62924 52.5 5.28125C52.5 5.9154 52.2769 6.41282 51.8438 6.78125C51.4106 7.14968 50.7102 7.34375 49.7188 7.34375C48.7184 7.34375 47.9957 7.15191 47.5625 6.78125C47.1293 6.41059 46.9062 5.92432 46.9062 5.3125C46.9062 4.67389 47.136 4.1854 47.5625 3.8125C47.989 3.4396 48.6693 3.25 49.5938 3.25ZM0.15625 11.9375L0.15625 15.9062L6.15625 17.4375L0.15625 19L0.15625 22.9688L10 22.9688L10 20.5L2.5 20.5L10 18.5938L10 16.3438L2.5 14.4062L10 14.4062L10 11.9375L0.15625 11.9375ZM11.3125 11.9375L11.3125 15.9062L17.3125 17.4375L11.3125 19L11.3125 22.9688L21.1562 22.9688L21.1562 20.5L13.6562 20.5L21.1562 18.5938L21.1562 16.3438L13.6562 14.4062L21.1562 14.4062L21.1562 11.9375L11.3125 11.9375ZM22.4688 11.9375L22.4688 15.9062L28.4688 17.4375L22.4688 19L22.4688 22.9688L32.3125 22.9688L32.3125 20.5L24.8125 20.5L32.3125 18.5938L32.3125 16.3438L24.8125 14.4062L32.3125 14.4062L32.3125 11.9375L22.4688 11.9375ZM33.625 11.9375L33.625 15.9062L39.5938 17.4375L33.625 19L33.625 22.9688L43.4688 22.9688L43.4688 20.5L35.9688 20.5L43.4688 18.5938L43.4688 16.3438L35.9688 14.4062L43.4688 14.4062L43.4688 11.9375L33.625 11.9375ZM44.7812 11.9375L44.7812 15.9062L50.75 17.4375L44.7812 19L44.7812 22.9688L54.5938 22.9688L54.5938 20.5L47.125 20.5L54.5938 18.5938L54.5938 16.3438L47.125 14.4062L54.5938 14.4062L54.5938 11.9375L44.7812 11.9375ZM0.15625 25.125L0.15625 28.1562L10 28.1562L10 25.125L0.15625 25.125ZM11.3125 25.125L11.3125 28.1562L21.1562 28.1562L21.1562 25.125L11.3125 25.125ZM22.4688 25.125L22.4688 28.1562L32.3125 28.1562L32.3125 25.125L22.4688 25.125ZM33.625 25.125L33.625 28.1562L43.4688 28.1562L43.4688 25.125L33.625 25.125ZM44.7812 25.125L44.7812 28.1562L54.5938 28.1562L54.5938 25.125L44.7812 25.125ZM7.875 29.6562L7.875 35.375L2.125 29.8438L0.15625 29.8438L0.15625 38.4375L2.25 38.4375L2.25 33.5312L7.9375 38.9688L10 38.9688L10 29.6562L7.875 29.6562ZM19.0312 29.6562L19.0312 35.375L13.2812 29.8438L11.3125 29.8438L11.3125 38.4375L13.4062 38.4375L13.4062 33.5312L19.0938 38.9688L21.1562 38.9688L21.1562 29.6562L19.0312 29.6562ZM30.1875 29.6562L30.1875 35.375L24.4375 29.8438L22.4688 29.8438L22.4688 38.4375L24.5625 38.4375L24.5625 33.5312L30.25 38.9688L32.3125 38.9688L32.3125 29.6562L30.1875 29.6562ZM41.3438 29.6562L41.3438 35.375L35.5938 29.8438L33.625 29.8438L33.625 38.4375L35.7188 38.4375L35.7188 33.5312L41.4062 38.9688L43.4688 38.9688L43.4688 29.6562L41.3438 29.6562ZM52.5 29.6562L52.5 35.375L46.75 29.8438L44.7812 29.8438L44.7812 38.4375L46.875 38.4375L46.875 33.5312L52.5625 38.9688L54.5938 38.9688L54.5938 29.6562L52.5 29.6562Z" fill="url(#LinearGradient)" fill-rule="nonzero" opacity="1" stroke="none" vectornator:layerName="Curve 1"/>
</g>
</g>
</g>
</g>
</svg>

<svg xmlns="http://www.w3.org/2000/svg" xmlns:vectornator="http://vectornator.io" xml:space="preserve" stroke-miterlimit="10" style="fill-rule:nonzero;clip-rule:evenodd;stroke-linecap:round;stroke-linejoin:round" viewBox="0 0 55.115 39.178"><defs><linearGradient id="a" x1="-8.596" x2="62.098" y1="45.297" y2="-5.395" gradientUnits="userSpaceOnUse"><stop offset="0" stop-color="#fbceff"/><stop offset=".487" stop-color="#ffe1e1"/><stop offset="1" stop-color="#d0fff9"/></linearGradient></defs><g vectornator:layerName="Layer 1"><g vectornator:layerName="Group 10"><g vectornator:layerName="Group 9"><g vectornator:layerName="Group 1"><path vectornator:layerName="Curve 1" fill="url(#a)" d="M5 .219c-1.58 0-2.81.428-3.688 1.312C.435 2.415 0 3.678 0 5.313 0 6.907.45 8.137 1.344 9.03c.893.893 2.147 1.344 3.75 1.344 1.147 0 2.08-.205 2.843-.656.764-.451 1.335-1.056 1.688-1.781.353-.726.531-1.643.531-2.75 0-1.09-.216-1.99-.625-2.72A4.17 4.17 0 0 0 7.812.782C7.079.395 6.149.22 5 .22Zm11.156 0c-1.58 0-2.81.428-3.687 1.312-.878.884-1.313 2.147-1.313 3.782 0 1.594.45 2.825 1.344 3.718.893.893 2.147 1.344 3.75 1.344 1.148 0 2.08-.205 2.844-.656.763-.451 1.334-1.056 1.687-1.781.353-.726.532-1.643.532-2.75 0-1.09-.217-1.99-.625-2.72a4.17 4.17 0 0 0-1.72-1.687C18.235.395 17.305.22 16.157.22Zm11.157 0c-1.581 0-2.81.428-3.688 1.312-.878.884-1.313 2.147-1.313 3.782 0 1.594.451 2.825 1.344 3.718.893.893 2.147 1.344 3.75 1.344 1.148 0 2.08-.205 2.844-.656.764-.451 1.335-1.056 1.688-1.781.352-.726.53-1.643.53-2.75 0-1.09-.216-1.99-.624-2.72A4.172 4.172 0 0 0 30.125.782C29.39.395 28.46.22 27.312.22Zm11.156 0c-1.581 0-2.81.428-3.688 1.312-.877.884-1.312 2.147-1.312 3.782 0 1.594.45 2.825 1.343 3.718.894.893 2.147 1.344 3.75 1.344 1.148 0 2.08-.205 2.844-.656.764-.451 1.335-1.056 1.688-1.781.352-.726.531-1.643.531-2.75 0-1.09-.216-1.99-.625-2.72A4.17 4.17 0 0 0 41.281.782C40.547.395 39.617.22 38.47.22Zm11.156 0c-1.58 0-2.81.428-3.688 1.312-.877.884-1.312 2.147-1.312 3.782 0 1.594.45 2.825 1.344 3.718.893.893 2.146 1.344 3.75 1.344 1.148 0 2.08-.205 2.843-.656.764-.451 1.335-1.056 1.688-1.781.353-.726.531-1.643.531-2.75 0-1.09-.216-1.99-.625-2.72A4.17 4.17 0 0 0 52.438.782C51.703.395 50.773.22 49.624.22ZM4.969 3.25c1.098 0 1.857.174 2.281.531.424.358.625.848.625 1.5 0 .634-.192 1.132-.625 1.5-.433.369-1.165.563-2.156.563-1 0-1.723-.192-2.157-.563-.433-.37-.624-.857-.624-1.468 0-.64.198-1.128.624-1.5.427-.373 1.107-.563 2.032-.563Zm11.156 0c1.099 0 1.857.174 2.281.531.425.358.625.848.625 1.5 0 .634-.223 1.132-.656 1.5-.433.369-1.134.563-2.125.563-1 0-1.723-.192-2.156-.563-.433-.37-.656-.857-.656-1.468 0-.64.23-1.128.656-1.5.426-.373 1.107-.563 2.031-.563Zm11.156 0c1.099 0 1.857.174 2.282.531.424.358.625.848.625 1.5 0 .634-.224 1.132-.657 1.5-.433.369-1.133.563-2.125.563-1 0-1.723-.192-2.156-.563-.433-.37-.656-.857-.656-1.468 0-.64.23-1.128.656-1.5.427-.373 1.107-.563 2.031-.563Zm11.157 0c1.098 0 1.856.174 2.28.531.425.358.626.848.626 1.5 0 .634-.223 1.132-.657 1.5-.433.369-1.133.563-2.124.563-1 0-1.724-.192-2.157-.563-.433-.37-.656-.857-.656-1.468 0-.64.23-1.128.656-1.5.427-.373 1.107-.563 2.032-.563Zm11.156 0c1.098 0 1.857.174 2.281.531.424.358.625.848.625 1.5 0 .634-.223 1.132-.656 1.5-.433.369-1.134.563-2.125.563-1 0-1.723-.192-2.157-.563-.433-.37-.656-.857-.656-1.468 0-.64.23-1.128.657-1.5.426-.373 1.106-.563 2.03-.563ZM.156 11.938v3.968l6 1.531-6 1.563v3.969H10V20.5H2.5l7.5-1.906v-2.25l-7.5-1.938H10v-2.469H.156Zm11.156 0v3.968l6 1.531-6 1.563v3.969h9.844V20.5h-7.5l7.5-1.906v-2.25l-7.5-1.938h7.5v-2.469h-9.843Zm11.157 0v3.968l6 1.531-6 1.563v3.969h9.843V20.5h-7.5l7.5-1.906v-2.25l-7.5-1.938h7.5v-2.469H22.47Zm11.156 0v3.968l5.969 1.531L33.625 19v3.969h9.844V20.5h-7.5l7.5-1.906v-2.25l-7.5-1.938h7.5v-2.469h-9.844Zm11.156 0v3.968l5.969 1.531L44.781 19v3.969h9.813V20.5h-7.469l7.469-1.906v-2.25l-7.469-1.938h7.469v-2.469H44.78ZM.156 25.124v3.031H10v-3.031H.156Zm11.156 0v3.031h9.844v-3.031h-9.843Zm11.157 0v3.031h9.843v-3.031H22.47Zm11.156 0v3.031h9.844v-3.031h-9.844Zm11.156 0v3.031h9.813v-3.031H44.78ZM7.875 29.656v5.719l-5.75-5.531H.156v8.593H2.25v-4.906l5.688 5.438H10v-9.313H7.875Zm11.156 0v5.719l-5.75-5.531h-1.969v8.593h2.094v-4.906l5.688 5.438h2.062v-9.313h-2.125Zm11.157 0v5.719l-5.75-5.531h-1.97v8.593h2.095v-4.906l5.687 5.438h2.063v-9.313h-2.126Zm11.156 0v5.719l-5.75-5.531h-1.969v8.593h2.094v-4.906l5.687 5.438h2.063v-9.313h-2.125Zm11.156 0v5.719l-5.75-5.531h-1.969v8.593h2.094v-4.906l5.688 5.438h2.03v-9.313H52.5Z"/></g></g></g></g></svg>
